images/facebook-button.svg

<svg xmlns="http://www.w3.org/2000/svg" width="547.2" height="553.6" viewBox="0 0 547.2 553.6"><style type="text/css">.st0{fill:#FFFFFF;} .st1{fill:#3A579D;}</style><path class="st0" d="M540.9 553.6h-534.6c-3.5 0-6.3-2.8-6.3-6.3v-541c0-3.5 2.8-6.3 6.3-6.3h534.6c3.5 0 6.3 2.8 6.3 6.3v541c0 3.5-2.8 6.3-6.3 6.3z"/><path class="st1" d="M512.5 523h-481.5c-2.2 0-4-1.8-4-4v-481.5c0-2.2 1.8-4 4-4h481.5c2.2 0 4 1.8 4 4v481.5c0 2.2-1.8 4-4 4z"/><path class="st0" d="M287.8 523.9v-189.2h-63.6v-74.1h63.6s-.9-80.2 3.5-82c0 0 6.1-43.6 51.4-63.6 0 0 21.6-11.3 97.6-3.5v65.4s-52.3 0-52.3 1.7c0 0-22.7 2.6-22.7 28.8v53.2h72l-8.9 73.4h-63.3v190h-77.3z"/></svg>

<?xml version="1.0" encoding="utf-8"?>
<!-- Generator: Adobe Illustrator 18.1.1, SVG Export Plug-In . SVG Version: 6.00 Build 0)  -->
<!DOCTYPE svg PUBLIC "-//W3C//DTD SVG 1.1//EN" "http://www.w3.org/Graphics/SVG/1.1/DTD/svg11.dtd">
<svg version="1.1" id="Layer_1" xmlns="http://www.w3.org/2000/svg" xmlns:xlink="http://www.w3.org/1999/xlink" x="0px" y="0px"
	 width="547.2px" height="553.6px" viewBox="0 0 547.2 553.6" style="enable-background:new 0 0 547.2 553.6;" xml:space="preserve"
	>
<style type="text/css">
	.st0{fill:#FFFFFF;}
	.st1{fill:#3A579D;}
</style>
<g>
	<path class="st0" d="M540.9,553.6H6.3c-3.5,0-6.3-2.8-6.3-6.3V6.3C0,2.8,2.8,0,6.3,0h534.6c3.5,0,6.3,2.8,6.3,6.3v541
		C547.2,550.8,544.4,553.6,540.9,553.6z"/>
	<g>
		<g>
			<path class="st1" d="M512.5,523H31c-2.2,0-4-1.8-4-4V37.5c0-2.2,1.8-4,4-4h481.5c2.2,0,4,1.8,4,4V519
				C516.5,521.2,514.7,523,512.5,523z"/>
		</g>
		<path class="st0" d="M287.8,523.9V334.7h-63.6v-74.1h63.6c0,0-0.9-80.2,3.5-82c0,0,6.1-43.6,51.4-63.6c0,0,21.6-11.3,97.6-3.5
			v65.4c0,0-52.3,0-52.3,1.7c0,0-22.7,2.6-22.7,28.8v53.2h72l-8.9,73.4h-63.3v190H287.8z"/>
	</g>
</g>
<g>
</g>
<g>
</g>
<g>
</g>
<g>
</g>
<g>
</g>
<g>
</g>
<g>
</g>
<g>
</g>
<g>
</g>
<g>
</g>
<g>
</g>
<g>
</g>
<g>
</g>
<g>
</g>
<g>
</g>
</svg>
